X: 345
T:Bumper Squire Jones
M:6/8
L:1/8
C:Turlough O'Carolan
Z:Rachel Marsh
K:D
A | FED d2 D | FAF GBA | BEF G2 A | FED d2 e |
fed edc | ABd ABc | dcd Bec | dDD D3 :||
fg | ~a3 dfa | bab efg | agf efd | cec A2 d |
faf ~g3 | faf gfg | fed cBc | dDD D3 :||
<end>
<start>
